X:1
T:Title
%%score 1 { 2 | 3 }
L:1/8
Q:1/4=83
M:6/8
K:D
V:1 treble nm="Grand Piano, Soprano"
V:2 bass nm="Choir Pad, The Lord Will Appear"
V:3 bass 
V:1
 D/[CE]/[DF][DF] [DF][DF][EG] | [FA][GB][FA] [=F^G][^FA][DF] | [FA][GB][GB] [GB][Bd][Ac] | %3
w: By~Edmund~Simon~Lorenz * * * * * *|||
 [GB][GB][FA] [=F^G] [^FA]2 | D/[CE]/[DF][DF] [DF][DF][EG] | [FA][GB][FA] [=F^G][^FA][DF] | %6
w: |||
 [Fd][Ec][Ac] [Ac][^Gc][Fd] | [Ec][DB][Ec] [DB] [CA]2 | D/[CE]/[DF][FA]- [FA]2- [FA]/ z/ | %9
w: |||
 [GB][FA][EG]- [EG]2- [EG]/ z/ | [CE]/[DF]/[EG][GB]- [GB]2- [GB]/ z/ | %11
w: ||
 [Ac][GB][FA]- [FA]2- [FA]/ z/ | [DF]/[EG]/[FA][Fd] [Fd] [Fd]2 | [FA]/[Fd]/[Gc][GB] [G^A] [GB]2 | %14
w: |||
 [GB]/[GB]/[FA][Fd] [GB][FA][DF] | D[DF][DF] [CE] D2- | D6 |] %17
w: |||
V:2
 z F,,D, D,F,,D, | D,F,,D, D,F,,D, | D,G,,G, G,G,,G, | G,D,,D, D, D,,2 | z D,,D, D,D,,D, | %5
 D,D,,D, D,D,,D, | D,E,,E, E,E,,E, | E,E,,E, E, A,,2 | F,/G,/A,[K:treble]D DDD | DCC C C2 | %10
 A,/A,/A,A, A,A,[K:treble]C | EDD D D2 | A,/A,/DA, A, A,2 | D/D/ED C D2 | D/D/DD DD[K:bass]A, | %15
 A,A,A, G, F,2- | F,6 |] %17
V:3
 z6 | z6 | z6 | z6 | z6 | z6 | z6 | z6 | D,/D,/D,D, D,D,D, | D,A,,A,, A,, A,,2 | %10
 A,,/A,,/A,,A,, A,,A,,A,, | A,,D,D, D, D,2 | D,/D,/D,D, D, D,2 | D,/D,/G,G, G, G,2 | %14
 G,/G,/D,D, D,D,D, | .F,3 A,, D,2- | D,6 |] %17

